build/assets/img/svg/icon-mobile.svg

<svg width="10" height="18" viewBox="0 0 10 18" fill="none" xmlns="http://www.w3.org/2000/svg">
<path fill-rule="evenodd" clip-rule="evenodd" d="M0.210541 1.68758C0.210541 0.755604 1.00582 9.15527e-05 1.98684 9.15527e-05H7.90784C8.88886 9.15527e-05 9.68414 0.755604 9.68414 1.68758V16.3124C9.68414 17.2444 8.88886 17.9999 7.90784 17.9999H1.98684C1.00582 17.9999 0.210541 17.2444 0.210541 16.3124V1.68758ZM7.90784 0.843834H1.98684C1.49633 0.843834 1.09869 1.22159 1.09869 1.68758V15.9C1.09869 16.0104 1.18823 16.1 1.29869 16.1H8.59599C8.70644 16.1 8.79599 16.0104 8.79599 15.9V1.68758C8.79599 1.22159 8.39835 0.843834 7.90784 0.843834Z" fill="#A62E41"/>
<path d="M2.57898 0.812023C2.57898 0.475672 2.84407 0 3.17108 0H6.72368C7.05069 0 7.31578 0.475672 7.31578 0.812023C7.31578 1.14837 7.05069 1.42104 6.72368 1.42104H3.17108C2.84407 1.42104 2.57898 1.14837 2.57898 0.812023Z" fill="#A62E41"/>
<path d="M4.50009 16.95C4.50009 16.7015 4.70156 16.5 4.95009 16.5V16.5C5.19862 16.5 5.40009 16.7015 5.40009 16.95V16.95C5.40009 17.1985 5.19862 17.4 4.95009 17.4V17.4C4.70156 17.4 4.50009 17.1985 4.50009 16.95V16.95Z" fill="white"/>
</svg>

<svg width="10" height="18" fill="none" xmlns="http://www.w3.org/2000/svg"><path fill-rule="evenodd" clip-rule="evenodd" d="M.21 1.688C.21.756 1.007 0 1.988 0h5.92c.982 0 1.777.756 1.777 1.688v14.624c0 .932-.795 1.688-1.776 1.688H1.987C1.006 18 .21 17.244.21 16.312V1.688zM7.909.844H1.987c-.49 0-.888.378-.888.844V15.9c0 .11.09.2.2.2h7.297a.2.2 0 00.2-.2V1.688c0-.466-.398-.844-.888-.844z" fill="#A62E41"/><path d="M2.579.812c0-.336.265-.812.592-.812h3.553c.327 0 .592.476.592.812a.6.6 0 01-.592.609H3.17a.6.6 0 01-.59-.609z" fill="#A62E41"/><path d="M4.5 16.95a.45.45 0 01.9 0 .45.45 0 01-.9 0z" fill="#fff"/></svg>
